svgs/thin/ethernet.svg

<svg xmlns="http://www.w3.org/2000/svg" viewBox="0 0 512 512"><!--! Font Awesome Pro 6.3.0 by @fontawesome - https://fontawesome.com License - https://fontawesome.com/license (Commercial License) Copyright 2023 Fonticons, Inc. --><path d="M480 192h-32V160c0-17.67-14.33-32-32-32h-32V96c0-17.67-14.33-32-32-32H160C142.3 64 128 78.33 128 96v32H96C78.33 128 64 142.3 64 160v32H32C14.33 192 0 206.3 0 224v192c0 17.67 14.33 32 32 32h448c17.67 0 32-14.33 32-32V224C512 206.3 497.7 192 480 192zM496 416c0 8.822-7.178 16-16 16h-72v-104c0-4.406-3.578-8-8-8s-8 3.594-8 8v104h-80v-104c0-4.406-3.578-8-8-8s-8 3.594-8 8v104h-80v-104C216 323.6 212.4 320 208 320s-8 3.594-8 8v104h-80v-104C120 323.6 116.4 320 112 320s-8 3.594-8 8v104H32c-8.822 0-16-7.178-16-16V224c0-8.822 7.178-16 16-16h48V160c0-8.822 7.178-16 16-16h48V96c0-8.822 7.178-16 16-16h192c8.822 0 16 7.178 16 16v48H416c8.822 0 16 7.178 16 16v48H480c8.822 0 16 7.178 16 16V416z"/></svg>

<svg xmlns="http://www.w3.org/2000/svg" viewBox="0 0 512 512"><!-- Font Awesome Pro 6.0.0-alpha2 by @fontawesome - https://fontawesome.com License - https://fontawesome.com/license (Commercial License) --><path d="M480 192H448V160C448 142.326 433.674 128 416 128H384V96C384 78.326 369.674 64 352 64H160C142.326 64 128 78.326 128 96V128H96C78.326 128 64 142.326 64 160V192H32C14.326 192 0 206.326 0 224V416C0 433.672 14.326 448 32 448H480C497.674 448 512 433.672 512 416V224C512 206.326 497.674 192 480 192ZM496 416C496 424.822 488.822 432 480 432H408V328C408 323.594 404.422 320 400 320S392 323.594 392 328V432H312V328C312 323.594 308.422 320 304 320S296 323.594 296 328V432H216V328C216 323.594 212.422 320 208 320S200 323.594 200 328V432H120V328C120 323.594 116.422 320 112 320S104 323.594 104 328V432H32C23.178 432 16 424.822 16 416V224C16 215.178 23.178 208 32 208H80V160C80 151.178 87.178 144 96 144H144V96C144 87.178 151.178 80 160 80H352C360.822 80 368 87.178 368 96V144H416C424.822 144 432 151.178 432 160V208H480C488.822 208 496 215.178 496 224V416Z"/></svg>
